X: 28483
T: Muñeira Do Miño
R: jig
M: 6/8
K: Adorian
g2f|:ecA AcA|eAe gfe|dBG GBG|BGB dgf|
ecA AcA|eAe gfe|dBG GBG|1 A3 g2f:|2 A3 a3||
|:aea aea|aea c'ba|gdg gdg|gdg bag|
aea aea|aea c'ba|gdg bag|1 a3 e3:|2 a3||

